X:765
T:June's Reel
C:Nigel Gatherer
Z:Nigel Gatherer
M:4/4
L:1/8
K:D
A | d2 cd (3Bcd AG | FAde fdaf | eAce gfed | ceBe cABc |
    d2 cd (3Bcd AG | FAde fdaf | eAce gfed | cAGE D3  :|
F | E3  F   GABd   | cA A/A/A cAge | E3  F GABd | cAec  d2 f2 |
    E3  F   GABd   | cA A/A/A cAge | fafd  cAGE | D2 FE D3   :|]
   
<end>
<start>
